X: 57
T:Back up and Push
M:4/4
L:1/4
K:A
"A7"z[ec][B=G][AF]|"D"[D2F2][D2F2]|z[FA][GB][Ac]|\
"A"[C2E2][C2E2]|"A"z[AF][BG][cA]|!
"E"[g2e2][g2-e2-]|[ge][fd][ec][BG]|"A"[e2c2A2]"Amaj7"[e2c2B2]|\
"A7"[=Gec][ec][B^G][A=G]|"D7"[F2=C2][F2C2]|!
"D"z[FA][GB][Ac]|"A"[C2E2]E2|"A"z[AE][GB][Ac]|"E"[g2e2][g2e2]|\
z[fd][G/B/]c/[BG]|!
"A"[C2E2A2]"D"[D2F2A2]|"A"[CEA]cBA||

